!!!COM: Haydn, Franz Joseph
!!!OTL: String Quartet in G major
!!!OPS: Op. 9
!!!ONM: No. 3
!!!OMD: Moderato
!!!OMV: 1
!!!SCT: 
!!!SCA: Thematisch-bibliographisches Werkevererzeichnis (A. van Hoboken)
!!!YOR: Trautwein Edition
!!!ENC: Frances Bennion
!!!CDT: 1732/3/31/-1809/5/31/
!!!CNT: Oesterreich
!!!YEC: Copyright (c) 1994, 2000 Center for Computer Assisted Research in the Humanities
!!!YEM: Rights to all derivative editions reserved.
!!!YEM: Refer to licensing agreement for further details.
!!!YEN: United States of America
**kern	**kern	**kern	**kern	**kern
*k[f#]	*k[f#]	*k[f#]	*k[f#]	*k[f#]
*G:	*G:	*G:	*G:	*G:
*clefF4	*clefC3	*clefG	*clefG	*clefG
*M4/4	*M4/4	*M4/4	*M4/4	*M4/4
8GG	8G	8B	1r	2g
8G	8G	8B	.	.
8G	8G	8B	.	.
8G	8G	8B	.	.
8G	8G	8B	.	8b
8G	8G	8B	.	16a
.	.	.	.	16g
8G	8G	8B	.	8g
8G	8G	8B	.	8g
=2	=2	=2	=2	=2
8GG	8G	8c	1r	8ee
8G	8G	8c	.	16dd#
.	.	.	.	16ee
8G	8G	8c	.	8ee
8G	8G	8c	.	4r
8G	8G	8c	.	.
8G	8G	8c	.	8ff#
8G	8G	8c	.	8gg
8G	8G	8c	.	8ee
=3	=3	=3	=3	=3
8GG	8G	8B	1r	16ee
.	.	.	.	16dd
8G	8G	8B	.	16cc#
.	.	.	.	16dd
8G	8G	8B	.	8dd
8G	8G	8B	.	4r
8G	8G	8B	.	.
8r	8r	8r	.	8ff#
4BB	4D	[4G	.	8gg
.	.	.	.	8B
=4	=4	=4	=4	=4
2C	2E	4.G]	1r	4B
.	.	.	.	8A
.	.	8c	.	8e
2D	2F#	4c	.	4e
.	.	8B	.	8d
.	.	8A	.	8c
=5	=5	=5	=5	=5
4.GG	1G	16A	1r	16c
.	.	16G	.	16B
.	.	16c	.	16e
.	.	16B	.	16d
.	.	8B	.	8d
8E	.	16G	.	3..r
.	.	16g	.	.
8D	.	16g	.	.
.	.	16f#	.	.
8C	.	16f#	.	.
.	.	16e	.	.
8BB	.	16e	.	.
.	.	16d	.	.
8AA	.	16d	.	.
.	.	16c	.	.
.	.	.	.	24r
=6	=6	=6	=6	=6
4GG	16G	16B	1r	2g
.	16B	16d	.	.
.	16G	16B	.	.
.	16B	16d	.	.
4r	16G	16B	.	.
.	16B	16d	.	.
.	16G	16B	.	.
.	16B	16d	.	.
4GG	16G	16B	.	8b
.	16B	16d	.	.
.	16G	16B	.	16a
.	16B	16d	.	16g
4r	16G	16B	.	8g
.	16B	16d	.	.
.	16G	16B	.	8g
.	16B	16d	.	.
=7	=7	=7	=7	=7
4GG	16G	16c	1r	8ee
.	16c	16e	.	.
.	16G	16c	.	16dd#
.	16c	16e	.	16ee
4r	16G	16c	.	8ee
.	16c	16e	.	.
.	16G	16c	.	8r
.	16c	16e	.	.
4GG	8G	8c	.	16ff#
.	.	.	.	16gg
.	4r	4r	.	16ff#
.	.	.	.	16gg
4r	.	.	.	16ff#
.	.	.	.	16gg
.	8c	8e	.	8r
=8	=8	=8	=8	=8
4GG	8B	8d	1r	16ee
.	.	.	.	16dd
.	4r	4r	.	16cc#
.	.	.	.	16dd
8r	.	.	.	16cc#
.	.	.	.	16dd
8E	8G	16G	.	3..r
.	.	16g	.	.
8D	[2G	16g	.	.
.	.	16f#	.	.
8C	.	16f#	.	.
.	.	16e	.	.
8BB	.	16e	.	.
.	.	16d	.	.
8AA	.	16d	.	.
.	.	16c	.	.
.	.	.	.	24r
=9	=9	=9	=9	=9
4GG	4G]	4B	4B	4d
2r	2r	2r	16B	8d
.	.	.	16G	.
.	.	.	8c	8e
.	.	.	16B	8d
.	.	.	16G	.
.	.	.	8c	8e
8r	8r	8r	8B	8d
8D	8d	8cc	8A	8f#
=10	=10	=10	=10	=10
4GG	4d	4b	8G	8g
.	.	.	8B	8d
2r	2r	2r	16B	8d
.	.	.	16G	.
.	.	.	8c	8e
.	.	.	16B	8d
.	.	.	16G	.
.	.	.	8c	8e
8r	8r	8r	8B	8d
8D	8d	8cc	8A	8f#
=11	=11	=11	=11	=11
8GG	2d	4b	2G	2g
8BB	.	.	.	.
8BB	.	[2.g	.	.
8BB	.	.	.	.
8BB	8B	.	2G	8g
8BB	8B	.	.	8f
8BB	8B	.	.	8e
8BB	8B	.	.	8d#
=12	=12	=12	=12	=12
8C	8c	1g_	2G	4d#
8C	8c	.	.	.
8C	8c	.	.	[6..e
8C	8c	.	.	.
8C	8c	.	2G	.
.	.	.	.	48e]
.	.	.	.	16f#
8C	8c	.	.	16g
.	.	.	.	16f#
8C	8c	.	.	8g
8C	8c	.	.	16f#
.	.	.	.	16e
=13	=13	=13	=13	=13
8BB	8B	2.g]	1r	8e
8BB	8B	.	.	8d
8BB	8B	.	.	4.d
8BB	8B	.	.	.
8BB	8B	.	.	.
8BB	8B	.	.	8g
8BB	8B	4d	.	8b
8BB	8B	.	.	8dd
=14	=14	=14	=14	=14
8AA	8A	2.e	1r	16dd
.	.	.	.	16cc
8A	8A	.	.	16b
.	.	.	.	16cc
8A	8A	.	.	2cc
8A	8A	.	.	.
8A	8A	.	.	.
8A	8A	.	.	.
8G	8B-	4e-	.	4e-
8G	8B-	.	.	.
=15	=15	=15	=15	=15
8F#	8A	8d	1r	8d
8F#	8A	8d	.	32e
.	.	.	.	32f#
.	.	.	.	32g
.	.	.	.	32a
8F#	8A	8d	.	32b
.	.	.	.	32cc
.	.	.	.	32dd
.	.	.	.	32ee
8F#	8A	8d	.	32ff#
.	.	.	.	32gg
.	.	.	.	32aa
.	.	.	.	32bb
8F#	8A	8d	.	8ccc
4r	4r	4r	.	4r
8F#	8A	8d	.	8cc
=16	=16	=16	=16	=16
4G	4G	4d	1r	16b
.	.	.	.	16g
.	.	.	.	16f#
.	.	.	.	16g
8r	8r	8r	.	8G
8E	8G	16G	.	3..r
.	.	16c	.	.
8D	4G	16c	.	.
.	.	16B	.	.
8C	.	16G	.	.
.	.	16e	.	.
8BB	8r	16e	.	.
.	.	16d	.	.
8AA	8c	16G	.	.
.	.	16f#	.	.
.	.	.	.	24r
=17	=17	=17	=17	=17
4GG	4B	4g	1r	4.bb
2r	4.e	4.g	.	.
.	.	.	.	16ccc
.	.	.	.	16aa#
.	.	.	.	8bb
.	8f#	8a	.	16ff#
.	.	.	.	16dd#
8r	8g	8b	.	8ee
8A	8c	16d#	.	16f#
.	.	16f#	.	16d#
=18	=18	=18	=18	=18
8G	8B	8e	1r	4e
8A	8c	16f#	.	.
.	.	16d#	.	.
4G	4B	4e	.	4r
2r	4r	4r	.	4.aa
.	[4d	[4f#	.	.
.	.	.	.	16bb
.	.	.	.	16gg#
=19	=19	=19	=19	=19
4.r	8d]	8f#]	1r	8aa
.	8e	8g	.	16ee
.	.	.	.	16cc#
.	8f#	8a	.	8dd
8G	8A	16c#	.	16e
.	.	16e	.	16c#
8F#	4A	8d	.	4d
8G	.	16e	.	.
.	.	16c#	.	.
8F#	8A	8d	.	4r
8r	8r	8r	.	.
=20	=20	=20	=20	=20
8E	8G	1r	1r	2gg
8E	8G	.	.	.
8E	8G	.	.	.
8E	8G	.	.	.
8D	8F	.	.	4.B-
8D	8F	.	.	.
8D	8F	.	.	.
8D	8F	.	.	16A
.	.	.	.	16B-
=21	=21	=21	=21	=21
8C#	8E	4.a	1r	4.A
8C#	8E	.	.	.
8C#	8E	.	.	.
8D	8F	8g#	.	8B-
8C#	8E	8a	.	8A
8D	8F	8g#	.	8B-
8C#	8E	8a	.	8A
8D	8F	8g#	.	8B-
=22	=22	=22	=22	=22
4C#	4E	4a	1r	4A
4r	4r	2A	.	4.eee
2c#	2e	.	.	.
.	.	.	.	8ccc#
.	.	[4A	.	8aa
.	.	.	.	8gg
=23	=23	=23	=23	=23
8d	8f#	8A]	1r	8ff#
2..r	2..r	2..r	.	8ddd
.	.	.	.	8ccc#
.	.	.	.	8bb
.	.	.	.	8aa
.	.	.	.	8gg
.	.	.	.	8ff#
.	.	.	.	8ee
=24	=24	=24	=24	=24
8F#	8A	[1d	2d	2dd
8F#	8A	.	.	.
8F#	8A	.	.	.
8F#	8A	.	.	.
8F#	8F#	.	2d	8dd
8F#	8F#	.	.	8cc
8F#	8F#	.	.	8b
8F#	8F#	.	.	8a#
=25	=25	=25	=25	=25
8G	8G	1d_	2d	4a#
8G	8G	.	.	.
8G	8G	.	.	4..b
8G	8G	.	.	.
8G	8G	.	2d	.
8G	8G	.	.	.
.	.	.	.	16cc#
8G	8G	.	.	8cc#
8G	8G	.	.	16b
.	.	.	.	16cc#
=26	=26	=26	=26	=26
8F#	8F#	1d_	2d	4dd
8F#	8A	.	.	.
8F#	8A	.	.	[6..dd
8F#	8A	.	.	.
8F#	8A	.	2d	.
.	.	.	.	48dd]
.	.	.	.	16ee
8F#	8A	.	.	16cc
.	.	.	.	16dd
8F#	8F#	.	.	16b
.	.	.	.	16cc
8F#	8F#	.	.	16a
.	.	.	.	16b
=27	=27	=27	=27	=27
8G	8G	1d_	2d	4a#
8G	8G	.	.	.
8G	8G	.	.	4..b
8G	8G	.	.	.
8G	8G	.	2d	.
8G	8G	.	.	.
.	.	.	.	16cc#
8G	8G	.	.	8cc#
8G	8G	.	.	16b
.	.	.	.	16cc#
=28	=28	=28	=28	=28
8F#	8F#	2d]	2d	2dd
8F#	8A	.	.	.
8F#	8A	.	.	.
8F#	8A	.	.	.
8F#	8A	2c	2d#	2dd#
8F#	8A	.	.	.
8F#	8A	.	.	.
8F#	8A	.	.	.
=29	=29	=29	=29	=29
8G	8B	8B	8e	8ee
8r	8r	8r	2..r	32g
.	.	.	.	32b
.	.	.	.	32ee
.	.	.	.	32gg
8G	8B	8e	.	8bb
8r	8r	8r	.	32g
.	.	.	.	32b
.	.	.	.	32ee
.	.	.	.	32gg
8G	8B	8e	.	8bb
4r	4r	4r	.	32g
.	.	.	.	32b
.	.	.	.	32ee
.	.	.	.	32gg
.	.	.	.	8bb
8G#	8G#	8g#	.	8g#
=30	=30	=30	=30	=30
8A	8A	8a	1r	2a
8AA	4f#	4aa	.	.
8AA	.	.	.	.
8AA	8d	32gg	.	.
.	.	32ff#	.	.
.	.	32ee	.	.
.	.	32dd	.	.
8AA	8A	2cc#	.	2ee
8AA	8A	.	.	.
8AA	8A	.	.	.
8AA	8A	.	.	.
=31	=31	=31	=31	=31
4D	4d	4dd	1r	8dd
.	.	.	.	24fff#
.	.	.	.	24eee
.	.	.	.	24ddd
4r	2r	2r	.	24ccc#
.	.	.	.	24bb
.	.	.	.	24aa
.	.	.	.	24gg
.	.	.	.	24ff#
.	.	.	.	24ee
[2D	.	.	.	4.dd
.	4f#	4a	.	.
.	.	.	.	8cc
=32	=32	=32	=32	=32
2D_	4g	4b	1r	8b
.	.	.	.	8dd
.	4e	4g	.	8cc#
.	.	.	.	8ee
4D]	4f#	4f#	.	8dd
.	.	.	.	24fff#
.	.	.	.	24eee
.	.	.	.	24ddd
4r	4r	4r	.	24ccc#
.	.	.	.	24bb
.	.	.	.	24aa
.	.	.	.	24gg
.	.	.	.	24ff#
.	.	.	.	24ee
=33	=33	=33	=33	=33
[1D	4r	4r	1r	4.dd
.	4f#	4a	.	.
.	.	.	.	8cc
.	4g	4b	.	8b
.	.	.	.	8dd
.	4e	4g	.	8cc#
.	.	.	.	8ee
=34	=34	=34	=34	=34
4D]	4f#	4f#	1r	8.dd
.	.	.	.	16d
4r	4r	4r	.	16dd
.	.	.	.	16d
.	.	.	.	16dd
.	.	.	.	16d
4D	4d	4f#	.	8dd
.	.	.	.	4.r
4r	4r	4r	.	.
=35	=35	=35	=35	=35
8D	8d	8f#	1r	2dd
8d	8d	8f#	.	.
8d	8d	8f#	.	.
8d	8d	8f#	.	.
8d	8d	8f#	.	8ff#
8d	8d	8f#	.	16ee
.	.	.	.	16dd
8d	8d	8f#	.	8dd
8d	8d	8f#	.	8dd
=36	=36	=36	=36	=36
8D	8d	8g	1r	8bb
8d	8d	8g	.	16aa#
.	.	.	.	16bb
8d	8d	8g	.	8bb
8d	8d	8g	.	4r
8d	8d	8g	.	.
8d	8d	8g	.	8ccc#
8d	8d	8g	.	8ddd
8d	8d	8g	.	8bb
=37	=37	=37	=37	=37
8D	8d	8f#	1r	16bb
.	.	.	.	16aa
8d	8d	8f#	.	16gg#
.	.	.	.	16aa
8d	8d	8f#	.	8aa
8d	8d	8f#	.	4r
8d	8d	8f#	.	.
8r	8r	8r	.	8ccc#
4F#	4A	[4d	.	8ddd
.	.	.	.	8f#
=38	=38	=38	=38	=38
2G	2B	4.d]	1r	4f#
.	.	.	.	8e
.	.	8g	.	8b
2A	2c#	4g	.	4b
.	.	8f#	.	8a
.	.	8e	.	8g
=39	=39	=39	=39	=39
4D	4d	16e	1r	16g
.	.	16d	.	16f#
.	.	16g	.	16b
.	.	16f#	.	16a
4.r	4.r	8f#	.	8a
.	.	4r	.	3..r
8D	8d	8d	.	.
8F	8f	8f	.	.
8A	8a	8a	.	.
.	.	.	.	24r
=40	=40	=40	=40	=40
8d	8d	16d	1r	2dd
.	.	16f	.	.
8d	8d	16d	.	.
.	.	16f	.	.
8d	8d	16d	.	.
.	.	16f	.	.
8d	8d	16d	.	.
.	.	16f	.	.
8c	8d	16A	.	8ff
.	.	16f	.	.
8c	8d	16A	.	16ee
.	.	16f	.	16dd
8c	8d	16A	.	8dd
.	.	16f	.	.
8c	8d	16A	.	8dd
.	.	16f	.	.
=41	=41	=41	=41	=41
8B-	8d	16G#	1r	4.ddd
.	.	16f	.	.
8B-	8d	16G#	.	.
.	.	16f	.	.
8B-	8d	16G#	.	.
.	.	16f	.	.
8B-	8d	16G#	.	8dd
.	.	16f	.	.
8A	8d	16A	.	8ff
.	.	16f	.	.
8A	8d	16A	.	16ee
.	.	16f	.	16dd
8A	8d	16A	.	8dd
.	.	16f	.	.
8A	8d	16A	.	8dd
.	.	16f	.	.
=42	=42	=42	=42	=42
8G#	8B	16d	1r	4.ddd
.	.	16f	.	.
8G#	8B	16d	.	.
.	.	16f	.	.
8G#	8B	16d	.	.
.	.	16f	.	.
8G#	8B	16d	.	8dd
.	.	16f	.	.
8G	8B	16d	.	8ff
.	.	16f	.	.
8G	8B	16d	.	16ee
.	.	16f	.	16dd
8G	8B	16d	.	8dd
.	.	16f	.	.
8G	8B	16d	.	8dd
.	.	16f	.	.
=43	=43	=43	=43	=43
8F#	8B	16d	1r	4.ddd
.	.	16f#	.	.
8F#	8B	16d	.	.
.	.	16f#	.	.
8F#	8B	16d	.	.
.	.	16f#	.	.
8F#	8B	16d	.	8dd
.	.	16f#	.	.
8E#	8B	16d	.	8ddd
.	.	16g#	.	.
8E#	8B	16d	.	8dd
.	.	16g#	.	.
8E#	8B	16d	.	8ddd
.	.	16g#	.	.
8E#	8B	16d	.	8dd
.	.	16g#	.	.
=44	=44	=44	=44	=44
8E	8B	16d	1r	8ddd
.	.	16g#	.	.
8E	8B	16d	.	8ccc
.	.	16g#	.	.
8E	8B	16d	.	8bb
.	.	16g#	.	.
8E	8B	16d	.	8aa
.	.	16g#	.	.
8E	8B	16d	.	8gg#
.	.	16g#	.	.
8E	8B	16d	.	8ff
.	.	16g#	.	.
8E	8B	16d	.	8ee
.	.	16g#	.	.
8E	8B	16d	.	8dd
.	.	16g#	.	.
=45	=45	=45	=45	=45
2A	2c	8a	1r	4cc
.	.	8a	.	.
.	.	8cc	.	4.r
.	.	16b	.	.
.	.	16a	.	.
2B	2d	2g#	.	.
.	.	.	.	8b
.	.	.	.	8dd
.	.	.	.	16cc
.	.	.	.	16b
=46	=46	=46	=46	=46
8r	4c	8a	1r	8cc
8AA	.	8cc	.	8ee
8C	4r	8ee	.	4.aa
16BB	.	16dd	.	.
16AA	.	16cc	.	.
8E	[2e	8b	.	.
8E	.	8ee	.	8gg#
8G#	.	4dd	.	[4bb
16F#	.	.	.	.
16E	.	.	.	.
=47	=47	=47	=47	=47
2..A	4e]	4cc	1r	8bb]
.	.	.	.	8aa
.	8A	8ee	.	8ccc
.	8B	8dd	.	8bb
.	4.c	8cc	.	8aa
.	.	8b	.	8gg
.	.	8a	.	8ff#
8A#	8c#	8g	.	8ee
=48	=48	=48	=48	=48
4B	4B	4f#	1r	4dd#
[2.BB	8d#	4b	.	2bb
.	16c#	.	.	.
.	16d#	.	.	.
.	8e	2cc	.	.
.	16d#	.	.	.
.	16e	.	.	.
.	8f#	.	.	[4aa
.	16e	.	.	.
.	16f#	.	.	.
=49	=49	=49	=49	=49
1BB]	8d#	2b	1r	4aa]
.	16c#	.	.	.
.	16d#	.	.	.
.	8e	.	.	2gg
.	16d#	.	.	.
.	16e	.	.	.
.	8c#	2a	.	.
.	16B	.	.	.
.	16c#	.	.	.
.	8d#	.	.	[4ff#
.	16c#	.	.	.
.	16d#	.	.	.
=50	=50	=50	=50	=50
8BB	8e	2g	1r	4ff#]
8B	16d#	.	.	.
.	16e	.	.	.
8c	4e	.	.	2ee
16B	.	.	.	.
16c	.	.	.	.
8A	4c	2f#	.	.
16G#	.	.	.	.
16A	.	.	.	.
8B	[4B	.	.	[4dd
16A	.	.	.	.
16B	.	.	.	.
=51	=51	=51	=51	=51
8G#	4B]	2e	1r	4dd]
16F#	.	.	.	.
16G#	.	.	.	.
8A	2A	.	.	2cc
16G#	.	.	.	.
16A	.	.	.	.
8F#	.	2d	.	.
16E	.	.	.	.
16F#	.	.	.	.
8G	4G	.	.	4b
16F#	.	.	.	.
16G	.	.	.	.
=52	=52	=52	=52	=52
4.C	4.c	2e	1r	16b
.	.	.	.	16a
.	.	.	.	16ee
.	.	.	.	16dd
.	.	.	.	16cc
.	.	.	.	16b
8C#	8c#	.	.	16a
.	.	.	.	16g
8.D	8.d	8.d	.	16f#
.	.	.	.	16e
.	.	.	.	16d
16E	16e	16e	.	16e
16D	16d	16d	.	16d
16C	16c	16c	.	16c
16BB	16B	16B	.	16B
16AA	16A	16A	.	16A
=53	=53	=53	=53	=53
4GG	16G	16B	1r	2g
.	16B	16d	.	.
.	16G	16B	.	.
.	16B	16d	.	.
4r	16G	16B	.	.
.	16B	16d	.	.
.	16G	16B	.	.
.	16B	16d	.	.
4GG	16G	16B	.	8b
.	16B	16d	.	.
.	16G	16B	.	16a
.	16B	16d	.	16g
4r	16G	16B	.	8g
.	16B	16d	.	.
.	16G	16B	.	8g
.	16B	16d	.	.
=54	=54	=54	=54	=54
4GG	16G	16c	1r	8ee
.	16c	16e	.	.
.	16G	16c	.	16dd#
.	16c	16e	.	16ee
4r	16G	16c	.	8ee
.	16c	16e	.	.
.	16G	16c	.	8r
.	16c	16e	.	.
4GG	8G	8c	.	16ff#
.	.	.	.	16gg
.	4r	4r	.	16ff#
.	.	.	.	16gg
4r	.	.	.	16ff#
.	.	.	.	16gg
.	8c	8e	.	8r
=55	=55	=55	=55	=55
4GG	8B	8d	1r	16ee
.	.	.	.	16dd
.	4r	4r	.	16cc#
.	.	.	.	16dd
8r	.	.	.	16cc#
.	.	.	.	16dd
8E	8G	16G	.	3..r
.	.	16g	.	.
8D	[2G	16g	.	.
.	.	16f#	.	.
8C	.	16f#	.	.
.	.	16e	.	.
8BB	.	16e	.	.
.	.	16d	.	.
8AA	.	16d	.	.
.	.	16c	.	.
.	.	.	.	24r
=56	=56	=56	=56	=56
4GG	4G]	4B	4B	4d
2r	2r	2r	16B	8d
.	.	.	16G	.
.	.	.	8c	8e
.	.	.	16B	8d
.	.	.	16G	.
.	.	.	8c	8e
8r	8r	8r	8B	8d
8D	8d	8cc	8A	8f#
=57	=57	=57	=57	=57
4GG	4d	4b	8G	8g
.	.	.	8B	8d
2r	2r	2r	16B	8d
.	.	.	16G	.
.	.	.	8c	8e
.	.	.	16B	8d
.	.	.	16G	.
.	.	.	8c	8e
8r	8r	8r	8B	8d
8D	8d	8cc	8A	8f#
=58	=58	=58	=58	=58
8GG	2d	4b	2G	2g
8BB	.	.	.	.
8BB	.	[2.g	.	.
8BB	.	.	.	.
8BB	8B	.	2G	8g
8BB	8B	.	.	8f
8BB	8B	.	.	8e
8BB	8B	.	.	8d#
=59	=59	=59	=59	=59
8C	8c	1g_	2G	4d#
8C	8c	.	.	.
8C	8c	.	.	[6..e
8C	8c	.	.	.
8C	8c	.	2G	.
.	.	.	.	48e]
.	.	.	.	16f#
8C	8c	.	.	16g
.	.	.	.	16f#
8C	8c	.	.	8g
8C	8c	.	.	16f#
.	.	.	.	16e
=60	=60	=60	=60	=60
8BB	8B	1g]	2G	8e
8BB	8B	.	.	8d
8BB	8B	.	.	4d
8BB	8B	.	.	.
8BB	8B	.	2G	8g
8BB	8B	.	.	8f
8BB	8B	.	.	8e
8BB	8B	.	.	8d#
=61	=61	=61	=61	=61
4.C	8c	8G	1r	4.e
.	8B	8G#	.	.
.	8c	4.A	.	.
8C#	4A	.	.	8e#
4.D	.	.	.	4.f#
.	8c#	8A#	.	.
.	8d	[4B	.	.
8D#	[8B	.	.	16a
.	.	.	.	16f#
=62	=62	=62	=62	=62
4.E	8B]	8B]	1r	4.g
.	8d#	8B	.	.
.	8e	4.c	.	.
8E	4c	.	.	8g#
4.F#	.	.	.	4.a
.	8e	8c#	.	.
.	8f#	[4d	.	.
8F#	[8d	.	.	8a#
=63	=63	=63	=63	=63
4G	8d]	8d]	1r	8b
.	8g	4d	.	16dd
.	.	.	.	16b
4A	8f#	.	.	8cc
.	8e	4d	.	16ee
.	.	.	.	16cc
4B	2G	.	.	8dd
.	.	4d	.	8gg
4BB	.	.	.	8ff
.	.	[8g	.	8dd#
=64	=64	=64	=64	=64
4C	4c	4g]	1r	4.ee
4.c	4.c	4.e	.	.
.	.	.	.	16ff#
.	.	.	.	16dd#
.	.	.	.	8ee
8d	8d	8f	.	16b
.	.	.	.	16g#
8c	8c	8e	.	8a
8d	8d	8f	.	16bb
.	.	.	.	16gg#
=65	=65	=65	=65	=65
8c	8c	8e	1r	4aa
8d	8f	16b	.	.
.	.	16g#	.	.
4c	4e	4a	.	4r
4r	4r	4r	.	4.dd
[4G	[4G	[4B	.	.
.	.	.	.	16ee
.	.	.	.	16cc#
=66	=66	=66	=66	=66
8G]	8G]	8B]	1r	8dd
8A	8A	8c	.	16a
.	.	.	.	16f#
8B	8B	8d	.	8g
8A	8A	8c	.	16aa
.	.	.	.	16ff#
8B	8B	8d	.	4gg
8A	8c	16a	.	.
.	.	16f#	.	.
8B	8d	8g	.	4r
8r	8r	8r	.	.
=67	=67	=67	=67	=67
8A	8c	1r	1r	2ccc
8A	8c	.	.	.
8A	8c	.	.	.
8A	8c	.	.	.
8G	8B-	.	.	4.e-
8G	8B-	.	.	.
8G	8B-	.	.	.
8G	8B-	.	.	16d
.	.	.	.	16e-
=68	=68	=68	=68	=68
8F#	8A	4.dd	1r	4.d
8F#	8A	.	.	.
8F#	8A	.	.	.
8G	8B-	8cc#	.	8e-
8F#	8A	8dd	.	8d
8G	8B-	8cc#	.	8e-
8F#	8A	8dd	.	8d
8G	8B-	8cc#	.	8e-
=69	=69	=69	=69	=69
4F#	4A	4dd	1r	4d
4r	4r	[2.d	.	4.aa
2FF#	2A	.	.	.
.	.	.	.	8ff#
.	.	.	.	8dd
.	.	.	.	8cc
=70	=70	=70	=70	=70
4GG	4B	4d]	1r	8b
.	.	.	.	8gg
2.r	2.r	2.r	.	8ff#
.	.	.	.	8ee
.	.	.	.	8dd
.	.	.	.	8cc
.	.	.	.	8b
.	.	.	.	8a
=71	=71	=71	=71	=71
8BB	8d	[1G	2G	2g
8BB	8d	.	.	.
8BB	8d	.	.	.
8BB	8d	.	.	.
8BB	8B	.	2G	8g
8BB	8B	.	.	8f
8BB	8B	.	.	8e
8BB	8B	.	.	8d#
=72	=72	=72	=72	=72
8C	8c	1G_	2G	4d#
8C	8c	.	.	.
8C	8c	.	.	4..e
8C	8c	.	.	.
8C	8c	.	2G	.
8C	8c	.	.	.
.	.	.	.	8.f#
8C	8c	.	.	.
8C	8c	.	.	16e
.	.	.	.	16f#
=73	=73	=73	=73	=73
8BB	8B	1G_	2G	4g
8BB	8d	.	.	.
8BB	8d	.	.	[6..g
8BB	8d	.	.	.
8BB	8d	.	2G	.
.	.	.	.	48g]
.	.	.	.	16a
8BB	8d	.	.	16f
.	.	.	.	16g
8BB	8B	.	.	16e
.	.	.	.	16f
8BB	8B	.	.	16d
.	.	.	.	16e
=74	=74	=74	=74	=74
8C	8c	1G_	2G	4d#
8C	8c	.	.	.
8C	8c	.	.	4..e
8C	8c	.	.	.
8C	8c	.	2G	.
8C	8c	.	.	.
.	.	.	.	8.f#
8C	8c	.	.	.
8C	8c	.	.	16e
.	.	.	.	16f#
=75	=75	=75	=75	=75
8BB	8B	2G]	2G	2g
8BB	8d	.	.	.
8BB	8d	.	.	.
8BB	8d	.	.	.
8BB	8d	2f	2G#	2g#
8BB	8d	.	.	.
8BB	8d	.	.	.
8BB	8d	.	.	.
=76	=76	=76	=76	=76
8C	8e	8e	8A	8a
8r	8r	8r	2..r	32c
.	.	.	.	32e
.	.	.	.	32a
.	.	.	.	32cc
8C	8e	8a	.	8ee
8r	8r	8r	.	32c
.	.	.	.	32e
.	.	.	.	32a
.	.	.	.	32cc
8C	8e	8a	.	8ee
4r	4r	4r	.	32c
.	.	.	.	32e
.	.	.	.	32a
.	.	.	.	32cc
.	.	.	.	8ee
8C#	8c#	8c#	.	8c#
=77	=77	=77	=77	=77
8D	8d	8d	1r	2d
8D	4b	4dd	.	.
8D	.	.	.	.
8D	8g	32cc	.	.
.	.	32b	.	.
.	.	32a	.	.
.	.	32g	.	.
8D	8d	2f#	.	2a
8D	8d	.	.	.
8D	8d	.	.	.
8D	8d	.	.	.
=78	=78	=78	=78	=78
4GG	4g	4g	1r	8g
.	.	.	.	24bb
.	.	.	.	24aa
.	.	.	.	24gg
4r	2r	2r	.	24ff#
.	.	.	.	24ee
.	.	.	.	24dd
.	.	.	.	24cc
.	.	.	.	24b
.	.	.	.	24a
[2GG	.	.	.	4.g
.	4B	4d	.	.
.	.	.	.	8f
=79	=79	=79	=79	=79
2GG_	4c	4e	1r	8e
.	.	.	.	8g
.	4A	4c	.	8f#
.	.	.	.	8a
4GG]	4B	4B	.	8g
.	.	.	.	24bb
.	.	.	.	24aa
.	.	.	.	24gg
4r	4r	4r	.	24ff#
.	.	.	.	24ee
.	.	.	.	24dd
.	.	.	.	24cc
.	.	.	.	24b
.	.	.	.	24a
=80	=80	=80	=80	=80
[1GG	4r	4r	1r	4.g
.	4B	4d	.	.
.	.	.	.	8f
.	4c	4e	.	8e
.	.	.	.	8g
.	4A	4c	.	8f#
.	.	.	.	8a
=81	=81	=81	=81	=81
4GG]	4B	4B	1r	8.g
.	.	.	.	16G
4r	4r	4r	.	16g
.	.	.	.	16G
.	.	.	.	16g
.	.	.	.	16G
4GG	4G	4B	.	4g
4r	4r	4r	.	4r
==	==	==	==	==
*-	*-	*-	*-	*-
!!!RWG1: This file contains only pitch and duration data.
!!!RWG2: Transposing instruments are not transposed.
!!!RWG3: Spines may have incompatible meters.
!!!RWG4: Durations of rests and tied notes may be interpreted.
!!!RWG: Key is interpreted using the Humdrum key tool.
!!!AFT: stage1
!!!END: 1997/04/15
!!!KEY: 1489901384
!!!EMD: Converted from MuseData to Humdrum Dec 16, 2000, by Andreas Kornstaedt using muse2kern.
!!!EMD: Manual editing by Craig Sapp, Nov 2001
